webroot/assets/sticky-banner/sticky-banner-breakpoints-tablet.svg

<svg xmlns="http://www.w3.org/2000/svg" width="780" height="116"><defs><filter id="a" width="780" height="116" x="0" y="0" filterUnits="userSpaceOnUse"><feOffset dy="-3"/><feGaussianBlur stdDeviation="2" result="b"/><feFlood flood-opacity=".102"/><feComposite operator="in" in2="b"/><feComposite in="SourceGraphic"/></filter></defs><path fill="#fff" d="M0 0h768v104H0z" transform="translate(6 9)" filter="url(#a)"/><path fill="none" d="M744 25h14v14h-14z"/><path fill="#6a6e73" d="M752.9 32l2.84-2.84a.9.9 0 0 0 0-1.27l-.63-.64a.9.9 0 0 0-1.25 0L751 30.1l-2.84-2.84a.9.9 0 0 0-1.27 0l-.64.63a.9.9 0 0 0 0 1.26L749.1 32l-2.84 2.84a.9.9 0 0 0 0 1.27l.63.64a.9.9 0 0 0 1.26 0L751 33.9l2.84 2.84a.9.9 0 0 0 1.27 0l.64-.63a.9.9 0 0 0 0-1.25z"/><g transform="translate(-593 -245)"><rect width="133" height="56" fill="#e00" rx="3" transform="translate(1122 278)"/><text fill="#fff" transform="translate(1154 312)" font-size="16" font-family="RedHatDisplay-Bold, Red Hat Display" font-weight="700"><tspan x="0" y="0">Show me</tspan></text></g><g fill="#151515"><text transform="translate(119 84)" font-size="16" font-family="RedHatText-Regular, Red Hat Text"><tspan x="0" y="0">Learn about hybrid cloud and how to get started.</tspan></text><text transform="translate(119 54)" font-size="20" font-family="RedHatDisplay-Medium, Red Hat Display" font-weight="500"><tspan x="0" y="0">Interested in cloud?</tspan></text></g><g opacity=".03"><path fill="#00f" d="M744 9h30v104h-30z" opacity=".75"/><path fill="#f00" d="M696 9h48v104h-48zM636 9h48v104h-48zM576 9h48v104h-48zM516 9h48v104h-48zM456 9h48v104h-48zM396 9h48v104h-48zM336 9h48v104h-48zM276 9h48v104h-48zM216 9h48v104h-48zM156 9h48v104h-48zM96 9h48v104H96zM36 9h48v104H36z" opacity=".75"/><path fill="#00f" d="M6 9h30v104H6z" opacity=".75"/></g></svg>

<svg xmlns="http://www.w3.org/2000/svg" xmlns:xlink="http://www.w3.org/1999/xlink" width="780" height="116" viewBox="0 0 780 116"><defs><style>.a{isolation:isolate;}.b,.f{fill:#fff;}.c{fill:none;}.d{fill:#6a6e73;}.e{fill:#e00;}.f,.g{font-size:16px;}.f{font-family:RedHatDisplay-Bold, Red Hat Display;font-weight:700;}.g,.h{fill:#151515;}.g{font-family:RedHatText-Regular, Red Hat Text;}.h{font-size:20px;font-family:RedHatDisplay-Medium, Red Hat Display;font-weight:500;}.i{opacity:0.03;}.j{fill:blue;}.j,.k{opacity:0.75;}.k{fill:red;}.l{filter:url(#a);}</style><filter id="a" x="0" y="0" width="780" height="116" filterUnits="userSpaceOnUse"><feOffset dy="-3" input="SourceAlpha"/><feGaussianBlur stdDeviation="2" result="b"/><feFlood flood-opacity="0.102"/><feComposite operator="in" in2="b"/><feComposite in="SourceGraphic"/></filter></defs><g class="a"><g class="l" transform="matrix(1, 0, 0, 1, 0, 0)"><path class="b" d="M0,0H768V104H0Z" transform="translate(6 9)"/></g><path class="c" d="M744,25h14V39H744Z"/><path class="d" d="M752.9,32l2.84-2.84a.9.9,0,0,0,0-1.27l-.63-.64a.9.9,0,0,0-1.25,0L751,30.1l-2.84-2.84a.9.9,0,0,0-1.27,0l-.64.63a.9.9,0,0,0,0,1.26L749.1,32l-2.84,2.84a.9.9,0,0,0,0,1.27l.63.64a.9.9,0,0,0,1.26,0L751,33.9l2.84,2.84a.9.9,0,0,0,1.27,0l.64-.63a.9.9,0,0,0,0-1.25Z"/><g transform="translate(-593 -245)"><rect class="e" width="133" height="56" rx="3" transform="translate(1122 278)"/><text class="f" transform="translate(1154 312)"><tspan x="0" y="0">Show me</tspan></text></g><text class="g" transform="translate(119 84)"><tspan x="0" y="0">Learn about hybrid cloud and how to get started.</tspan></text><text class="h" transform="translate(119 54)"><tspan x="0" y="0">Interested in cloud?</tspan></text><g class="i"><path class="j" d="M744,9h30V113H744Z"/><path class="k" d="M696,9h48V113H696ZM636,9h48V113H636ZM576,9h48V113H576ZM516,9h48V113H516ZM456,9h48V113H456ZM396,9h48V113H396ZM336,9h48V113H336ZM276,9h48V113H276ZM216,9h48V113H216ZM156,9h48V113H156ZM96,9h48V113H96ZM36,9H84V113H36Z"/><path class="j" d="M6,9H36V113H6Z"/></g></g></svg>
